X:140
T:Jackson's Favourite Jig
M:6/8
L:1/8
Z:abc by Bruce Osborne - bosborne@kos.net
K:D
D|DFE EFE|DFA AFA|BAB def|gfg e2 D|!
DFE EFE|DFA AFA|BAB d2 e|fdd d2:|!
|:g|fed faf|ede fdB|AFA def|gfg e2 a|!
fed faf|ede fdB|AFA d2 e|fdd d2:|!
